X: 1
T: Polska efter Lars i Kontere
C: Trad. Sweden - V\"armland, Gr\"asmark
S: after Bert Deivert (http://www.deivert.com/kontere.html)
M: 3/4
L: 1/8
%Q: 1/4=130
K: A
|: "A"A<c e2 "Bm"B2 |     B<d "E7"e2   f>g |1,3 "D"(3a2f2d2 f>a | "E7"g2 e4 :|2,4 "D"(3a2f2d2 "E7"(3cAc | B<G "A"A4 :|
|: "A"e>d c2    c>e | "E7"d<c     B2 (3efg |1,3 "D"(3a2f2d2 f>a | "E7"g2 e4 :|2,4 "D"(3a2f2d2 "E7"(3cAc | B<G "A"A4 :|
